static/img/index/1_0.svg

<svg width="458" height="255" viewBox="0 0 458 255" fill="none" xmlns="http://www.w3.org/2000/svg">
<path d="M91.9832 250C89.4165 250 87.3165 249.183 85.6832 247.55C84.2832 245.917 83.5832 243.933 83.5832 241.6V60.3L30.3832 101.25C28.2832 102.65 26.1832 103.233 24.0832 103C21.9832 102.533 20.1165 101.25 18.4832 99.15L3.78315 80.25C2.38315 78.15 1.79982 75.9333 2.03315 73.6C2.49982 71.2667 3.78315 69.4 5.88315 68L84.2832 7.45001C85.6832 6.28335 87.0832 5.58334 88.4832 5.34999C89.8832 5.11666 91.3998 5 93.0332 5H123.833C126.167 5 128.15 5.81667 129.783 7.45001C131.416 9.08334 132.233 11.0667 132.233 13.4V241.6C132.233 243.933 131.416 245.917 129.783 247.55C128.15 249.183 126.167 250 123.833 250H91.9832Z" fill="#F7F7F7"/>
<path d="M186.445 250C184.112 250 182.128 249.183 180.495 247.55C178.862 245.917 178.045 243.933 178.045 241.6V206.95C178.045 204.383 178.862 202.283 180.495 200.65C182.128 199.017 184.112 198.2 186.445 198.2H221.445C223.778 198.2 225.762 199.017 227.395 200.65C229.028 202.283 229.845 204.383 229.845 206.95V241.6C229.845 243.933 229.028 245.917 227.395 247.55C225.762 249.183 223.778 250 221.445 250H186.445Z" fill="#F7F7F7"/>
<path d="M361.737 253.5C345.171 253.5 331.054 251.05 319.387 246.15C307.721 241.25 298.154 234.483 290.687 225.85C283.221 217.217 277.621 207.3 273.887 196.1C270.154 184.667 267.937 172.533 267.237 159.7C267.004 153.4 266.771 146.517 266.537 139.05C266.537 131.35 266.537 123.65 266.537 115.95C266.771 108.25 267.004 101.133 267.237 94.6C267.704 81.7667 269.921 69.75 273.887 58.55C277.854 47.1167 283.571 37.2 291.037 28.8C298.737 20.4 308.421 13.75 320.087 8.85001C331.754 3.95001 345.637 1.5 361.737 1.5C378.071 1.5 392.071 3.95001 403.737 8.85001C415.404 13.75 424.971 20.4 432.437 28.8C440.137 37.2 445.854 47.1167 449.587 58.55C453.554 69.75 455.771 81.7667 456.237 94.6C456.704 101.133 456.937 108.25 456.937 115.95C456.937 123.65 456.937 131.35 456.937 139.05C456.937 146.517 456.704 153.4 456.237 159.7C455.771 172.533 453.671 184.667 449.937 196.1C446.204 207.3 440.604 217.217 433.137 225.85C425.671 234.483 415.987 241.25 404.087 246.15C392.421 251.05 378.304 253.5 361.737 253.5ZM361.737 213.25C376.904 213.25 387.987 208.35 394.987 198.55C402.221 188.517 405.954 174.983 406.187 157.95C406.654 151.183 406.887 144.417 406.887 137.65C406.887 130.65 406.887 123.65 406.887 116.65C406.887 109.65 406.654 103 406.187 96.7C405.954 80.1334 402.221 66.8333 394.987 56.8C387.987 46.5333 376.904 41.4 361.737 41.4C346.804 41.4 335.721 46.5333 328.487 56.8C321.487 66.8333 317.754 80.1334 317.287 96.7C317.287 103 317.171 109.65 316.937 116.65C316.937 123.65 316.937 130.65 316.937 137.65C317.171 144.417 317.287 151.183 317.287 157.95C317.754 174.983 321.604 188.517 328.837 198.55C336.071 208.35 347.037 213.25 361.737 213.25Z" fill="#F7F7F7"/>
<path fill-rule="evenodd" clip-rule="evenodd" d="M84.9489 248.23L84.9239 248.201C83.355 246.37 82.5832 244.15 82.5832 241.6V62.3317L30.9662 102.063L30.9379 102.082C28.6819 103.586 26.3501 104.258 23.9727 103.994L23.919 103.988L23.8662 103.976C21.4892 103.448 19.4351 102.003 17.6938 99.7639L2.97139 80.8351L2.95113 80.8047C1.43323 78.5279 0.779951 76.0824 1.03814 73.5005L1.04301 73.4518L1.0526 73.4039C1.57244 70.8047 3.01026 68.7231 5.29887 67.1878L83.6575 6.66971C85.1515 5.42795 86.7058 4.63244 88.3188 4.3636C89.7805 4.11998 91.3528 4 93.0332 4H123.833C126.429 4 128.667 4.9199 130.49 6.74291C132.313 8.56589 133.233 10.8045 133.233 13.4V241.6C133.233 244.196 132.313 246.434 130.49 248.257C128.667 250.08 126.429 251 123.833 251H91.9832C89.1836 251 86.8186 250.1 84.9761 248.257L84.9489 248.23ZM84.2832 7.45001L5.88318 68C3.78318 69.4 2.49984 71.2667 2.03318 73.6C1.79984 75.9333 2.38318 78.15 3.78318 80.25L18.4832 99.15C20.1165 101.25 21.9832 102.533 24.0832 103C26.1832 103.233 28.2832 102.65 30.3832 101.25L83.5832 60.3V241.6C83.5832 243.933 84.2832 245.917 85.6832 247.55C87.3165 249.183 89.4165 250 91.9832 250H123.833C126.167 250 128.15 249.183 129.783 247.55C131.417 245.917 132.233 243.933 132.233 241.6V13.4C132.233 11.0667 131.417 9.08334 129.783 7.45001C128.15 5.81667 126.167 5 123.833 5H93.0332C91.3998 5 89.8832 5.11666 88.4832 5.34999C87.0832 5.58333 85.6832 6.28335 84.2832 7.45001ZM272.939 196.416L272.937 196.41C269.175 184.889 266.943 172.669 266.239 159.754L266.238 159.746L266.238 159.737C266.005 153.435 265.771 146.549 265.538 139.081L265.537 139.066V115.935L265.538 115.92C265.771 108.218 266.005 101.1 266.238 94.5643C266.708 81.6392 268.941 69.5222 272.943 58.2202C276.95 46.6732 282.73 36.6407 290.29 28.1356L290.295 28.1299L290.3 28.1243C298.108 19.6067 307.915 12.8777 319.7 7.92803C331.518 2.96458 345.539 0.5 361.737 0.5C378.167 0.5 392.305 2.96392 404.125 7.92803C415.909 12.8775 425.603 19.6076 433.18 28.13C440.976 36.6367 446.76 46.6738 450.534 58.2274C454.533 69.5221 456.765 81.63 457.236 94.5457C457.704 101.102 457.937 108.237 457.937 115.95V139.05C457.937 146.53 457.704 153.432 457.236 159.755C456.765 172.668 454.65 184.888 450.888 196.41L450.886 196.416C447.113 207.736 441.449 217.768 433.894 226.504C426.313 235.269 416.496 242.121 404.472 247.073C392.651 252.037 378.397 254.5 361.737 254.5C345.077 254.5 330.821 252.037 319 247.072C307.207 242.119 297.509 235.266 289.931 226.504C282.376 217.768 276.712 207.736 272.939 196.416ZM404.087 246.15C415.987 241.25 425.671 234.483 433.137 225.85C440.604 217.217 446.204 207.3 449.937 196.1C453.671 184.667 455.771 172.533 456.237 159.7C456.704 153.4 456.937 146.517 456.937 139.05V115.95C456.937 108.25 456.704 101.133 456.237 94.6C455.771 81.7667 453.554 69.75 449.587 58.55C445.854 47.1167 440.137 37.2 432.437 28.8C424.971 20.4 415.404 13.75 403.737 8.85001C392.071 3.95001 378.071 1.5 361.737 1.5C345.637 1.5 331.754 3.95001 320.087 8.85001C308.421 13.75 298.737 20.4 291.037 28.8C283.571 37.2 277.854 47.1167 273.887 58.55C269.921 69.75 267.704 81.7667 267.237 94.6C267.004 101.133 266.771 108.25 266.537 115.95V139.05C266.771 146.517 267.004 153.4 267.237 159.7C267.937 172.533 270.154 184.667 273.887 196.1C277.621 207.3 283.221 217.217 290.687 225.85C298.154 234.483 307.721 241.25 319.387 246.15C331.054 251.05 345.171 253.5 361.737 253.5C378.304 253.5 392.421 251.05 404.087 246.15ZM186.445 251C183.849 251 181.611 250.08 179.788 248.257C177.965 246.434 177.045 244.196 177.045 241.6V206.95C177.045 204.15 177.945 201.785 179.788 199.943C181.611 198.12 183.849 197.2 186.445 197.2H221.445C224.04 197.2 226.279 198.12 228.102 199.943C229.945 201.785 230.845 204.15 230.845 206.95V241.6C230.845 244.196 229.925 246.434 228.102 248.257C226.279 250.08 224.04 251 221.445 251H186.445ZM186.445 250C184.112 250 182.128 249.183 180.495 247.55C178.862 245.917 178.045 243.933 178.045 241.6V206.95C178.045 204.383 178.862 202.283 180.495 200.65C182.128 199.017 184.112 198.2 186.445 198.2H221.445C223.778 198.2 225.762 199.017 227.395 200.65C229.028 202.283 229.845 204.383 229.845 206.95V241.6C229.845 243.933 229.028 245.917 227.395 247.55C225.762 249.183 223.778 250 221.445 250H186.445Z" fill="#F7F7F7"/>
<path fill-rule="evenodd" clip-rule="evenodd" d="M317.287 96.7C317.287 103 317.171 109.65 316.937 116.65V139.067C317.171 146.067 317.287 152.717 317.287 159.017C317.754 175.584 321.487 188.884 328.487 198.917C335.721 209.184 346.804 214.317 361.737 214.317C376.904 214.317 387.987 209.184 394.987 198.917C402.221 188.884 405.954 175.584 406.187 159.017C406.654 152.717 406.887 146.067 406.887 139.067V116.65C406.887 109.65 406.654 103 406.187 96.7C405.954 80.1333 402.221 66.8333 394.987 56.8C387.987 46.5333 376.904 41.4 361.737 41.4C346.804 41.4 335.721 46.5333 328.487 56.8C321.487 66.8333 317.754 80.1333 317.287 96.7ZM405.887 116.65C405.887 109.672 405.655 103.047 405.19 96.7739L405.188 96.744L405.188 96.7141C404.956 80.284 401.255 67.2037 394.176 57.3848L394.169 57.3742L394.161 57.3633C387.39 47.432 376.656 42.4 361.737 42.4C347.061 42.4 336.316 47.4266 329.307 57.3727C322.454 67.1957 318.752 80.282 318.287 96.7141C318.287 103.017 318.171 109.668 317.937 116.667V139.05C318.171 146.049 318.287 152.7 318.287 159.003C318.752 175.435 322.454 188.521 329.307 198.344C336.316 208.29 347.061 213.317 361.737 213.317C376.656 213.317 387.39 208.285 394.161 198.354L394.169 198.343L394.176 198.332C401.255 188.513 404.956 175.433 405.188 159.003L405.188 158.973L405.19 158.943C405.655 152.67 405.887 146.045 405.887 139.067V116.65Z" fill="#F7F7F7"/>
</svg>

<svg width="458" height="255" fill="none" xmlns="http://www.w3.org/2000/svg"><path d="M91.983 250c-2.567 0-4.666-.817-6.3-2.45-1.4-1.633-2.1-3.617-2.1-5.95V60.3l-53.2 40.95c-2.1 1.4-4.2 1.983-6.3 1.75-2.1-.467-3.966-1.75-5.6-3.85l-14.7-18.9c-1.4-2.1-1.983-4.317-1.75-6.65.467-2.333 1.75-4.2 3.85-5.6l78.4-60.55c1.4-1.167 2.8-1.867 4.2-2.1 1.4-.233 2.917-.35 4.55-.35h30.8c2.334 0 4.317.817 5.95 2.45 1.633 1.633 2.45 3.617 2.45 5.95v228.2c0 2.333-.817 4.317-2.45 5.95-1.633 1.633-3.616 2.45-5.95 2.45h-31.85Zm94.462 0c-2.333 0-4.317-.817-5.95-2.45-1.633-1.633-2.45-3.617-2.45-5.95v-34.65c0-2.567.817-4.667 2.45-6.3 1.633-1.633 3.617-2.45 5.95-2.45h35c2.333 0 4.317.817 5.95 2.45 1.633 1.633 2.45 3.733 2.45 6.3v34.65c0 2.333-.817 4.317-2.45 5.95-1.633 1.633-3.617 2.45-5.95 2.45h-35Zm175.292 3.5c-16.566 0-30.683-2.45-42.35-7.35-11.666-4.9-21.233-11.667-28.7-20.3-7.466-8.633-13.066-18.55-16.8-29.75-3.733-11.433-5.95-23.567-6.65-36.4-.233-6.3-.466-13.183-.7-20.65v-23.1c.234-7.7.467-14.817.7-21.35.467-12.833 2.684-24.85 6.65-36.05 3.967-11.433 9.684-21.35 17.15-29.75 7.7-8.4 17.384-15.05 29.05-19.95 11.667-4.9 25.55-7.35 41.65-7.35 16.334 0 30.334 2.45 42 7.35 11.667 4.9 21.234 11.55 28.7 19.95 7.7 8.4 13.417 18.317 17.15 29.75 3.967 11.2 6.184 23.217 6.65 36.05.467 6.533.7 13.65.7 21.35v23.1c0 7.467-.233 14.35-.7 20.65-.466 12.833-2.566 24.967-6.3 36.4-3.733 11.2-9.333 21.117-16.8 29.75-7.466 8.633-17.15 15.4-29.05 20.3-11.666 4.9-25.783 7.35-42.35 7.35Zm0-40.25c15.167 0 26.25-4.9 33.25-14.7 7.234-10.033 10.967-23.567 11.2-40.6.467-6.767.7-13.533.7-20.3v-21c0-7-.233-13.65-.7-19.95-.233-16.567-3.966-29.867-11.2-39.9-7-10.267-18.083-15.4-33.25-15.4-14.933 0-26.016 5.133-33.25 15.4-7 10.033-10.733 23.333-11.2 39.9 0 6.3-.116 12.95-.35 19.95v21c.234 6.767.35 13.533.35 20.3.467 17.033 4.317 30.567 11.55 40.6 7.234 9.8 18.2 14.7 32.9 14.7Z" fill="#F7F7F7"/><path fill-rule="evenodd" clip-rule="evenodd" d="m84.949 248.23-.025-.029c-1.569-1.831-2.34-4.051-2.34-6.601V62.332l-51.618 39.731-.028.019c-2.256 1.504-4.588 2.176-6.965 1.912l-.054-.006-.053-.012c-2.377-.528-4.43-1.973-6.172-4.212L2.97 80.835l-.02-.03C1.433 78.528.78 76.082 1.038 73.5l.005-.048.01-.048c.52-2.6 1.957-4.68 4.246-6.216L83.658 6.67c1.493-1.242 3.048-2.038 4.66-2.306C89.782 4.12 91.354 4 93.034 4h30.8c2.596 0 4.834.92 6.657 2.743 1.823 1.823 2.743 4.062 2.743 6.657v228.2c0 2.596-.92 4.834-2.743 6.657-1.823 1.823-4.061 2.743-6.657 2.743h-31.85c-2.8 0-5.164-.9-7.007-2.743l-.027-.027ZM84.283 7.45 5.883 68c-2.1 1.4-3.383 3.267-3.85 5.6-.233 2.333.35 4.55 1.75 6.65l14.7 18.9c1.633 2.1 3.5 3.383 5.6 3.85 2.1.233 4.2-.35 6.3-1.75l53.2-40.95v181.3c0 2.333.7 4.317 2.1 5.95 1.633 1.633 3.733 2.45 6.3 2.45h31.85c2.334 0 4.317-.817 5.95-2.45 1.634-1.633 2.45-3.617 2.45-5.95V13.4c0-2.333-.816-4.317-2.45-5.95-1.633-1.633-3.616-2.45-5.95-2.45h-30.8c-1.633 0-3.15.117-4.55.35-1.4.233-2.8.933-4.2 2.1ZM272.94 196.416l-.002-.006c-3.762-11.521-5.994-23.741-6.698-36.656l-.001-.008v-.009c-.233-6.302-.467-13.188-.7-20.656l-.001-.015v-23.131l.001-.015c.233-7.702.467-14.82.7-21.356.47-12.925 2.703-25.042 6.705-36.344 4.007-11.547 9.787-21.58 17.347-30.084l.005-.006.005-.006c7.808-8.517 17.615-15.246 29.4-20.196C331.518 2.965 345.539.5 361.737.5c16.43 0 30.568 2.464 42.388 7.428 11.784 4.95 21.478 11.68 29.055 20.202 7.796 8.507 13.58 18.544 17.354 30.097 3.999 11.295 6.231 23.403 6.702 36.319.468 6.556.701 13.691.701 21.404v23.1c0 7.48-.233 14.382-.701 20.705-.471 12.913-2.586 25.133-6.348 36.655l-.002.006c-3.773 11.32-9.437 21.352-16.992 30.088-7.581 8.765-17.398 15.617-29.422 20.569-11.821 4.964-26.075 7.427-42.735 7.427s-30.916-2.463-42.737-7.428c-11.793-4.953-21.491-11.806-29.069-20.568-7.555-8.736-13.219-18.768-16.992-30.088Zm131.148 49.734c11.9-4.9 21.584-11.667 29.05-20.3 7.467-8.633 13.067-18.55 16.8-29.75 3.734-11.433 5.834-23.567 6.3-36.4.467-6.3.7-13.183.7-20.65v-23.1c0-7.7-.233-14.817-.7-21.35-.466-12.833-2.683-24.85-6.65-36.05-3.733-11.433-9.45-21.35-17.15-29.75-7.466-8.4-17.033-15.05-28.7-19.95-11.666-4.9-25.666-7.35-42-7.35-16.1 0-29.983 2.45-41.65 7.35-11.666 4.9-21.35 11.55-29.05 19.95-7.466 8.4-13.183 18.317-17.15 29.75-3.966 11.2-6.183 23.217-6.65 36.05-.233 6.533-.466 13.65-.7 21.35v23.1c.234 7.467.467 14.35.7 20.65.7 12.833 2.917 24.967 6.65 36.4 3.734 11.2 9.334 21.117 16.8 29.75 7.467 8.633 17.034 15.4 28.7 20.3 11.667 4.9 25.784 7.35 42.35 7.35 16.567 0 30.684-2.45 42.35-7.35ZM186.445 251c-2.596 0-4.834-.92-6.657-2.743-1.823-1.823-2.743-4.061-2.743-6.657v-34.65c0-2.8.9-5.165 2.743-7.007 1.823-1.823 4.061-2.743 6.657-2.743h35c2.595 0 4.834.92 6.657 2.743 1.843 1.842 2.743 4.207 2.743 7.007v34.65c0 2.596-.92 4.834-2.743 6.657-1.823 1.823-4.062 2.743-6.657 2.743h-35Zm0-1c-2.333 0-4.317-.817-5.95-2.45-1.633-1.633-2.45-3.617-2.45-5.95v-34.65c0-2.567.817-4.667 2.45-6.3 1.633-1.633 3.617-2.45 5.95-2.45h35c2.333 0 4.317.817 5.95 2.45 1.633 1.633 2.45 3.733 2.45 6.3v34.65c0 2.333-.817 4.317-2.45 5.95-1.633 1.633-3.617 2.45-5.95 2.45h-35Z" fill="#F7F7F7"/><path fill-rule="evenodd" clip-rule="evenodd" d="M317.287 96.7c0 6.3-.116 12.95-.35 19.95v22.417c.234 7 .35 13.65.35 19.95.467 16.567 4.2 29.867 11.2 39.9 7.234 10.267 18.317 15.4 33.25 15.4 15.167 0 26.25-5.133 33.25-15.4 7.234-10.033 10.967-23.333 11.2-39.9.467-6.3.7-12.95.7-19.95V116.65c0-7-.233-13.65-.7-19.95-.233-16.567-3.966-29.867-11.2-39.9-7-10.267-18.083-15.4-33.25-15.4-14.933 0-26.016 5.133-33.25 15.4-7 10.033-10.733 23.333-11.2 39.9Zm88.6 19.95c0-6.978-.232-13.603-.697-19.876l-.002-.03v-.03c-.232-16.43-3.933-29.51-11.012-39.33l-.007-.01-.008-.01C387.39 47.431 376.656 42.4 361.737 42.4c-14.676 0-25.421 5.027-32.43 14.973-6.853 9.823-10.555 22.909-11.02 39.341 0 6.303-.116 12.954-.35 19.953v22.383c.234 6.999.35 13.65.35 19.953.465 16.432 4.167 29.518 11.02 39.341 7.009 9.946 17.754 14.973 32.43 14.973 14.919 0 25.653-5.032 32.424-14.963l.008-.011.007-.011c7.079-9.819 10.78-22.899 11.012-39.329v-.03l.002-.03c.465-6.273.697-12.898.697-19.876V116.65Z" fill="#F7F7F7"/></svg>
